X:4
T:Polka CGF 5- (Anm)
M:2/4
L:1/16
K:Cmaj%%MIDI gchordon 
"C"GeGe dGcG | "Dm""_h"B2"_a"A2 {/B}A"_#"^GA2 | "G7"G"_f"fG"_f"f e2"_d"d2 | "C"GeGe d2c2 | GeGe dGcG | "Dm""_h"B2"_a"A2 {/B}A"_#"^GA2 | 
"G7"G"_f"ffG e"_d"d"_a"A"_ h ="B | "C"c2e2 c2z2 :: [K:Gmaj] "D7""_e"ed"_c"c"_a"A "_#"FD"_e"E"_ # ="F | "G"G2Bed4 | "D7""_#"F"_a"A"_c"c"_#"f "_e"e2d2 | "G"GBdg e2d2 | 
"D7"edcA FDE"_ ="F | "G"G2Bed4 | "D7"FAcf edcA | "G"G2B2 "_>Teil A"G2z2 :: [K:Fmaj] "F"c2"_(#)"^c2 d3"_ ="A | "C7""_b"B4 z2BB | 
c2=B2 c3G | "F"A4z2ff | fegf edc"_(#)"^c | "Gm"e2d2G4 | "F"cfe"_ ="d "C7"c"_b"BA"_g"G |1 "F""_[#]"^G2A2 F3c :|2 "F"F2A2 F2z2 |] 

